X:56
T:Lark in the Morning
R:jig
M:6/8
L:1/8
K:D
AFA AFA | BGB BdB | AFA Ade | fed BdB |
AFA AFA | BGB BdB | def afe | fed BdB ::
def afa | baf afe | def afa | fed BAB  |
def afa | baf a2f | gag fgf | edB BAB ::
d2f fef | fef fef | d2f fef | edB BAB |
d2f fef | fef fef | gag fgf | edB BAB ::
Add fdd | edd fdB | Add fdd | edB BAF |
Add fdd | ede f2f | gag fgf | edB BAB  :|
